Papirus/32x32/apps/godot.svg

<svg xmlns="http://www.w3.org/2000/svg" width="32" height="32" version="1">
 <path style="opacity:.2" d="m13.2 3.9995039-0.114843 0.0669922-3.385157 1.4335039 0.7 3.5-3.2224612 1.473828-1.6775388-1.473828-3.5 3.5 2 2.166992v7.255665l-2-0.559181v2.33379c2.8186668 4.306166 7.7 6.302734 14 6.302734s11.181333-1.996568 14-6.302734v-2.33379l-2 0.559181v-7.255665l2-2.166992-3.5-3.5-1.677539 1.473828-3.222461-1.473828 0.7-3.5-3.5-1.5004961-1.197657 2.0004961h-3.207421z"/>
 <path style="fill:#3888c3" d="m13.2 2.9995039-0.114843 0.0669922-3.385157 1.4335039 0.7 3.5-3.2224612 1.4738283-1.6775388-1.4738283-3.5 3.5 2 2.166992v7.255665l-2-0.559181v2.33379c2.8186668 4.306166 7.7 6.302734 14 6.302734s11.181333-1.996568 14-6.302734v-2.33379l-2 0.559181v-7.255665l2-2.166992-3.5-3.5-1.677539 1.4738283-3.222461-1.4738283 0.7-3.5-3.5-1.5004961-1.197657 2.0004961h-3.207421z"/>
 <path style="opacity:.2" d="m9 14c1.6572 0 3 1.3428 3 3s-1.3428 3-3 3-3-1.3428-3-3 1.3428-3 3-3z"/>
 <path style="fill:#ffffff" d="m9 13c1.6572 0 3 1.3428 3 3s-1.3428 3-3 3-3-1.3428-3-3 1.3428-3 3-3z"/>
 <path style="fill:#353535" d="m11 15.999367a2.0000001 2.0000001 0 1 1 -4 0 2 2 0 1 1 4 0z"/>
 <path style="opacity:.2" d="m16 16c0.554 0 1 0.446 1 1v2c0 0.554-0.446 1-1 1s-1-0.446-1-1v-2c0-0.554 0.446-1 1-1z"/>
 <path style="fill:#ffffff" d="m16 15c0.554 0 1 0.446 1 1v2c0 0.554-0.446 1-1 1s-1-0.446-1-1v-2c0-0.554 0.446-1 1-1z"/>
 <path style="opacity:.2" d="m23 14c1.6572 0 3 1.3428 3 3s-1.3428 3-3 3-3-1.3428-3-3 1.3428-3 3-3z"/>
 <path style="fill:#ffffff" d="m23 13c1.6572 0 3 1.3428 3 3s-1.3428 3-3 3-3-1.3428-3-3 1.3428-3 3-3z"/>
 <path style="fill:#353535" d="m25 16a2 2 0 1 1 -4 0 2 2 0 1 1 4 0z"/>
 <path style="opacity:.2;stroke:#000000;fill:none" d="m29.734307 20.182332-2.234307 0.510949v1.904446l-2 0.928998v-1.950896l-3 0.510949v1.904446l-4 0.608029v-2.1h-2.5m-13.7343066-2.316921 2.2343066 0.510949v1.904446l2 0.928998v-1.950896l3 0.510949v1.904446l4 0.608029v-2.1h2.5"/>
 <path style="stroke:#ffffff;fill:none" d="m29.734307 19.182729-2.234307 0.510949v1.904446l-2 0.928998v-1.950896l-3 0.510949v1.904446l-4 0.608029v-2.1h-2.5m-13.7343066-2.316921 2.2343066 0.510949v1.904446l2 0.928998v-1.950896l3 0.510949v1.904446l4 0.608029v-2.1h2.5"/>
 <path style="opacity:.2;fill:#ffffff" d="m13.199219 3l-0.113281 0.0664062-3.3867192 1.4335938 0.1855468 0.921875 3.2011724-1.3554688 0.113281-0.0664062 1.195312 2h1.603516 1.603515l1.199219-2 3.316407 1.421875 0.183593-0.921875-3.5-1.5-1.199219 2h-1.603515-1.603516l-1.195312-2zm-7.699219 5l-3.5 3.5 0.4804688 0.519531 3.0195312-3.019531 1.6777344 1.474609 3.2226566-1.474609-0.183594-0.9160156-3.0390626 1.390625-1.6777344-1.4746094zm21 0l-1.677734 1.4746094-3.039063-1.390625-0.183594 0.9160156 3.222657 1.474609 1.677734-1.474609 3.019531 3.019531 0.480469-0.519531-3.5-3.5zm-24.5 12.363281v1l2 0.558594v-0.628906-0.371094l-2-0.558594zm28 0l-2 0.558594v0.371094 0.628906l2-0.558594v-1z"/>
</svg>

<svg xmlns="http://www.w3.org/2000/svg" width="32" height="32" version="1">
 <path d="M 13.2,3.9995039 13.085157,4.0664961 9.7,5.5 10.4,9 7.1775388,10.473828 5.5,9 2,12.5 l 2,2.166992 0,7.255665 0,-0.559181 0,2.33379 C 4,23.697266 6,30 16,30 26,30 28,23.697266 28,23.697266 l 0,-2.33379 0,0.559181 0,-7.255665 L 30,12.5 26.5,9 24.822461,10.473828 21.6,9 22.3,5.5 18.8,3.9995039 17.602343,6 14.394922,6 Z" style="opacity:0.2"/>
 <path style="fill:#3888c3" d="M 13.2,2.9995039 13.085157,3.0664961 9.7,4.5 10.4,8 7.1775388,9.4738283 5.5,8 2,11.5 l 2,2.166992 0,7.255665 0,-0.559181 0,2.33379 C 4,22.697266 6,29 16,29 26,29 28,22.697266 28,22.697266 l 0,-2.33379 0,0.559181 0,-7.255665 L 30,11.5 26.5,8 24.822461,9.4738283 21.6,8 22.3,4.5 18.8,2.9995039 17.602343,5 14.394922,5 Z"/>
 <path style="opacity:.2" d="m9 14c1.6572 0 3 1.3428 3 3s-1.3428 3-3 3-3-1.3428-3-3 1.3428-3 3-3z"/>
 <path style="fill:#ffffff" d="m9 13c1.6572 0 3 1.3428 3 3s-1.3428 3-3 3-3-1.3428-3-3 1.3428-3 3-3z"/>
 <path style="fill:#353535" d="m11 15.999367a2.0000001 2.0000001 0 1 1 -4 0 2 2 0 1 1 4 0z"/>
 <path style="opacity:.2" d="m16 16c0.554 0 1 0.446 1 1v2c0 0.554-0.446 1-1 1s-1-0.446-1-1v-2c0-0.554 0.446-1 1-1z"/>
 <path style="fill:#ffffff" d="m16 15c0.554 0 1 0.446 1 1v2c0 0.554-0.446 1-1 1s-1-0.446-1-1v-2c0-0.554 0.446-1 1-1z"/>
 <path style="opacity:.2" d="m23 14c1.6572 0 3 1.3428 3 3s-1.3428 3-3 3-3-1.3428-3-3 1.3428-3 3-3z"/>
 <path style="fill:#ffffff" d="m23 13c1.6572 0 3 1.3428 3 3s-1.3428 3-3 3-3-1.3428-3-3 1.3428-3 3-3z"/>
 <path style="fill:#353535" d="m25 16a2 2 0 1 1 -4 0 2 2 0 1 1 4 0z"/>
 <path d="m 28,22.5 -4.5,0 0,2 -5,0 0,-2.00035 -2.5,0 M 4,22.5 l 4.5,0 0,2 5,0 0,-2.00035 2.5,0" style="opacity:0.2;fill:none;stroke:#000000;stroke-linejoin:round"/>
 <path style="fill:none;stroke:#ffffff;stroke-linejoin:round" d="m 28,21.5 -4.5,0 0,2 -5,0 0,-2.00035 -2.5,0 M 4,21.5 l 4.5,0 0,2 5,0 0,-2.00035 2.5,0"/>
 <path style="fill:#ffffff;opacity:0.2" d="M 13.199219 3 L 13.085938 3.0664062 L 9.6992188 4.5 L 9.8847656 5.421875 L 13.085938 4.0664062 L 13.199219 4 L 14.394531 6 L 17.601562 6 L 18.800781 4 L 22.117188 5.421875 L 22.300781 4.5 L 18.800781 3 L 17.601562 5 L 14.394531 5 L 13.199219 3 z M 5.5 8 L 2 11.5 L 2.4804688 12.019531 L 5.5 9 L 7.1777344 10.474609 L 10.400391 9 L 10.216797 8.0839844 L 7.1777344 9.4746094 L 5.5 8 z M 26.5 8 L 24.822266 9.4746094 L 21.783203 8.0839844 L 21.599609 9 L 24.822266 10.474609 L 26.5 9 L 29.519531 12.019531 L 30 11.5 L 26.5 8 z"/>
</svg>
